X: 10
T:Hunting the Squirrel, Headington 1
M:2/2
L:1/8
A:Headington
P:A(A2B2)4
K:G
Q:364
P:A
GABc d2B2|GABc d2B2|GABc d2B2|AGAB G4||
P:B
d2g2 f2a2|g2b2 d4  |d3e  dcBA|G2B2 G4||
